;FLAVOR:Marlin
;TIME:2976
;Filament used: 2.08185m
;Layer height: 0.2
;MINX:68.683
;MINY:82.065
;MINZ:0.24
;MAXX:142.867
;MAXY:142.866
;MAXZ:15.69
;Generated with Cura_SteamEngine 4.3.0
M140 S60
M105
M190 S60
M104 S200
M105
M109 S200
M82 ;absolute extrusion mode
M201 X500.00 Y500.00 Z100.00 E5000.00 ;Setup machine max acceleration
M203 X500.00 Y500.00 Z10.00 E50.00 ;Setup machine max feedrate
M204 P500.00 R1000.00 T500.00 ;Setup Print/Retract/Travel acceleration
M205 X8.00 Y8.00 Z0.40 E5.00 ;Setup Jerk
M220 S100 ;Reset Feedrate
M221 S100 ;Reset Flowrate

G28 ;Home
G29 ;Mr Probe

G92 E0 ;Reset Extruder
G1 Z2.0 F3000 ;Move Z Axis up
G1 X10.1 Y20 Z0.28 F5000.0 ;Move to start position
G1 X10.1 Y200.0 Z0.28 F1500.0 E15 ;Draw the first line
G1 X10.4 Y200.0 Z0.28 F5000.0 ;Move to side a little
G1 X10.4 Y20 Z0.28 F1500.0 E30 ;Draw the second line
G92 E0 ;Reset Extruder
G1 Z2.0 F3000 ;Move Z Axis up
G92 E0
G92 E0
G1 F2700 E-5
;LAYER_COUNT:73
;LAYER:-6
M107
G0 F9000 X77.345 Y86.678 Z0.24
;TYPE:SUPPORT-INTERFACE
G1 F2700 E0
G1 F1125 X77.466 Y86.575 E0.01268
G1 X78.195 Y86 E0.0868
G1 X78.314 Y85.913 E0.09857
G1 X79.188 Y85.328 E0.18252
G1 X79.994 Y84.865 E0.25672
G1 X80.145 Y84.786 E0.27032
G1 X80.934 Y84.406 E0.34023
G1 X81.092 Y84.337 E0.35399
G1 X82.077 Y83.954 E0.43835
G1 X83.097 Y83.642 E0.52349
G1 X84.149 Y83.402 E0.60963
G1 X85.032 Y83.263 E0.68098
G1 X85.218 Y83.24 E0.69594
G1 X86.139 Y83.163 E0.76972
G1 X87.088 Y83.138 E0.84549
G1 X87.253 Y83.139 E0.85867
G1 X88.17 Y83.181 E0.93194
G1 X88.32 Y83.193 E0.94395
G1 X89.211 Y83.3 E1.01559
G1 X89.382 Y83.327 E1.02941
G1 X90.414 Y83.532 E1.1134
G1 X91.075 Y83.712 E1.16808
G1 X91.535 Y83.815 E1.20571
G1 X92.461 Y83.984 E1.28085
G1 X93.315 Y84.198 E1.35112
G1 X93.452 Y84.239 E1.36254
G1 X93.874 Y84.372 E1.39786
G1 X94.525 Y84.533 E1.45139
G1 X95.203 Y84.612 E1.50588
G1 X95.886 Y84.605 E1.5604
G1 X96.56 Y84.512 E1.61471
G1 X97.097 Y84.373 E1.65899
G1 X97.317 Y84.306 E1.67735
G1 X98.222 Y84.055 E1.75232
G1 X98.367 Y84.02 E1.76422
G1 X99.329 Y83.83 E1.8425
G1 X99.837 Y83.723 E1.88394
G1 X100.693 Y83.498 E1.95459
G1 X100.843 Y83.464 E1.96687
G1 X101.72 Y83.3 E2.03809
G1 X101.878 Y83.277 E2.05083
G1 X102.764 Y83.178 E2.12199
G1 X102.961 Y83.163 E2.13777
G1 X104.01 Y83.127 E2.22155
G1 X104.866 Y83.153 E2.28991
G1 X104.98 Y83.162 E2.29904
G1 X105.892 Y83.245 E2.37214
G1 X106.044 Y83.264 E2.38437
G1 X106.947 Y83.414 E2.45744
G1 X107.128 Y83.451 E2.47218
G1 X107.979 Y83.656 E2.54206
G1 X108.143 Y83.702 E2.55565
G1 X109.002 Y83.977 E2.62765
G1 X109.159 Y84.034 E2.64098
G1 X110.135 Y84.433 E2.72515
G1 X110.93 Y84.823 E2.79584
G1 X111.125 Y84.927 E2.81348
G1 X111.858 Y85.356 E2.88127
G1 X112.019 Y85.458 E2.89649
G1 X112.743 Y85.955 E2.96659
G1 X112.907 Y86.077 E2.9829
G1 X113.578 Y86.614 E3.05151
G1 X113.734 Y86.748 E3.06792
G1 X114.366 Y87.335 E3.13678
G1 X114.485 Y87.453 E3.15015
G1 X115.092 Y88.1 E3.22097
G1 X115.428 Y88.481 E3.26152
G1 X115.949 Y89.106 E3.32647
G1 X116.389 Y89.666 E3.38332
G1 X116.791 Y90.202 E3.4368
G1 X116.989 Y90.479 E3.46398
G1 X117.412 Y91.103 E3.52416
G1 X117.815 Y91.638 E3.57762
G1 X118.291 Y92.127 E3.6321
G1 X118.824 Y92.552 E3.68651
G1 X119.408 Y92.908 E3.74111
G1 X120.032 Y93.186 E3.79564
G1 X120.683 Y93.382 E3.84991
G1 X120.812 Y93.406 E3.86038
G1 X120.812 Y93.42 E3.8615
G1 X121.535 Y93.532 E3.9199
G1 X122.375 Y93.688 E3.9881
G1 X122.914 Y93.806 E4.03215
G1 X123.245 Y93.884 E4.05929
G1 X124.099 Y94.108 E4.12977
G1 X124.933 Y94.359 E4.19929
G1 X125.724 Y94.628 E4.26598
G1 X126.175 Y94.795 E4.30437
G1 X126.519 Y94.93 E4.33387
G1 X127.024 Y95.137 E4.37744
G1 X127.347 Y95.278 E4.40557
G1 X127.819 Y95.493 E4.44697
G1 X128.139 Y95.646 E4.47529
G1 X128.646 Y95.9 E4.52055
G1 X128.94 Y96.055 E4.54708
G1 X129.341 Y96.274 E4.58355
G1 X129.641 Y96.444 E4.61108
G1 X130.434 Y96.922 E4.68499
G1 X130.866 Y97.2 E4.726
G1 X131.177 Y97.409 E4.75591
G1 X131.521 Y97.647 E4.7893
G1 X131.796 Y97.844 E4.8163
G1 X132.252 Y98.183 E4.86166
G1 X132.519 Y98.39 E4.88863
G1 X132.95 Y98.737 E4.9328
G1 X133.212 Y98.956 E4.96005
G1 X133.585 Y99.279 E4.99944
G1 X133.842 Y99.509 E5.02697
G1 X134.26 Y99.897 E5.0725
G1 X134.532 Y100.162 E5.10281
G1 X135.084 Y100.719 E5.16541
G1 X135.691 Y101.381 E5.2371
G1 X136.016 Y101.756 E5.27671
G1 X136.239 Y102.022 E5.30442
G1 X136.596 Y102.464 E5.34977
G1 X136.808 Y102.738 E5.37743
G1 X137.095 Y103.121 E5.41563
G1 X137.29 Y103.391 E5.44222
G1 X137.582 Y103.81 E5.48299
G1 X137.794 Y104.128 E5.51349
G1 X138.258 Y104.857 E5.58247
G1 X138.528 Y105.312 E5.62471
G1 X138.697 Y105.608 E5.65191
G1 X138.956 Y106.081 E5.69496
G1 X139.109 Y106.373 E5.72128
G1 X139.405 Y106.971 E5.77454
G1 X139.85 Y107.954 E5.86067
G1 X140.166 Y108.728 E5.92741
G1 X140.464 Y109.54 E5.99645
G1 X140.458 Y109.54 E5.99693
G1 X140.647 Y110.088 E6.0432
G1 X140.744 Y110.398 E6.06913
G1 X140.887 Y110.889 E6.10995
G1 X140.979 Y111.224 E6.13768
G1 X141.126 Y111.799 E6.18506
G1 X141.193 Y112.082 E6.20827
G1 X141.377 Y112.966 E6.28035
G1 X141.458 Y113.413 E6.31661
G1 X141.513 Y113.749 E6.34379
G1 X141.585 Y114.246 E6.38388
G1 X141.628 Y114.58 E6.41076
G1 X141.717 Y115.435 E6.47938
G1 X141.777 Y116.336 E6.55146
G1 X141.803 Y117.289 E6.62756
G1 X141.8 Y117.997 E6.68408
G1 X141.782 Y118.577 E6.7304
G1 X141.767 Y118.886 E6.75509
G1 X141.731 Y119.356 E6.79272
G1 X141.734 Y119.356 E6.79296
G1 X141.725 Y119.486 E6.80336
G1 X141.697 Y119.807 E6.82908
G1 X141.573 Y120.849 E6.91285
G1 X141.52 Y121.222 E6.94292
G1 X141.471 Y121.524 E6.96734
G1 X141.372 Y122.077 E7.01219
G1 X141.305 Y122.41 E7.0393
G1 X141.198 Y122.901 E7.07941
G1 X141.106 Y123.285 E7.11093
G1 X140.901 Y124.067 E7.17547
G1 X140.744 Y124.604 E7.22013
G1 X140.648 Y124.909 E7.24565
G1 X140.349 Y125.786 E7.31961
G1 X140.065 Y126.532 E7.38333
G1 X139.873 Y127 E7.42371
G1 X139.742 Y127.303 E7.45006
G1 X139.507 Y127.82 E7.49539
G1 X139.355 Y128.137 E7.52346
G1 X139.1 Y128.646 E7.5689
G1 X138.945 Y128.94 E7.59543
G1 X138.739 Y129.318 E7.62979
G1 X138.576 Y129.607 E7.65628
G1 X138.099 Y130.402 E7.73029
G1 X137.8 Y130.866 E7.77435
G1 X137.351 Y131.523 E7.83787
G1 X137.156 Y131.797 E7.86472
G1 X136.819 Y132.249 E7.90972
G1 X136.61 Y132.519 E7.93698
G1 X136.26 Y132.954 E7.98154
G1 X136.045 Y133.211 E8.00829
G1 X135.496 Y133.837 E8.07475
G1 X135.103 Y134.26 E8.12084
G1 X134.886 Y134.484 E8.14574
G1 X134.28 Y135.083 E8.21376
G1 X133.843 Y135.489 E8.26137
G1 X133.591 Y135.715 E8.28839
G1 X133.239 Y136.021 E8.32562
G1 X132.989 Y136.231 E8.35168
G1 X132.536 Y136.596 E8.39812
G1 X132.262 Y136.808 E8.42578
G1 X131.609 Y137.29 E8.49056
G1 X131.19 Y137.582 E8.53133
G1 X130.872 Y137.795 E8.56188
G1 X130.457 Y138.064 E8.60136
G1 X130.177 Y138.238 E8.62768
G1 X129.369 Y138.71 E8.70237
G1 X128.631 Y139.106 E8.76923
G1 X127.962 Y139.437 E8.82881
G1 X127.072 Y139.839 E8.90676
G1 X126.255 Y140.172 E8.97719
G1 X125.452 Y140.467 E9.04548
G1 X125.082 Y140.591 E9.07663
G1 X124.525 Y140.767 E9.12326
G1 X123.76 Y140.983 E9.18671
G1 X123.204 Y141.125 E9.23252
G1 X122.919 Y141.192 E9.25589
G1 X122.423 Y141.3 E9.29641
G1 X122.069 Y141.37 E9.32521
G1 X121.188 Y141.521 E9.39656
G1 X120.771 Y141.582 E9.4302
G1 X120.441 Y141.625 E9.45677
G1 X119.477 Y141.723 E9.53411
G1 X118.967 Y141.761 E9.57494
G1 X118.642 Y141.778 E9.60092
G1 X117.708 Y141.803 E9.6755
G1 X117.001 Y141.8 E9.73194
G1 X116.423 Y141.782 E9.7781
G1 X116.103 Y141.766 E9.80367
G1 X115.644 Y141.731 E9.84042
G1 X115.644 Y141.734 E9.84066
G1 X115.144 Y141.691 E9.88072
G1 X114.248 Y141.588 E9.95271
G1 X113.465 Y141.468 E10.01594
G1 X112.898 Y141.366 E10.06193
G1 X112.59 Y141.305 E10.08699
G1 X112.084 Y141.195 E10.12833
G1 X111.587 Y141.075 E10.16914
G1 X110.754 Y140.849 E10.23804
G1 X110.062 Y140.638 E10.29579
G1 X109.349 Y140.398 E10.35584
G1 X108.825 Y140.205 E10.40041
G1 X108.476 Y140.068 E10.43034
G1 X107.976 Y139.863 E10.47348
G1 X107.653 Y139.722 E10.50161
G1 X107.156 Y139.495 E10.54523
G1 X106.876 Y139.361 E10.57
G1 X106.347 Y139.096 E10.61723
G1 X106.06 Y138.945 E10.64312
G1 X105.323 Y138.534 E10.71048
G1 X104.563 Y138.076 E10.78131
G1 X103.831 Y137.596 E10.85119
G1 X103.473 Y137.349 E10.8859
G1 X103.175 Y137.135 E10.91519
G1 X102.74 Y136.811 E10.95849
G1 X102.481 Y136.61 E10.98466
G1 X102.03 Y136.247 E11.03087
G1 X101.763 Y136.023 E11.05869
G1 X101.128 Y135.462 E11.12633
G1 X100.741 Y135.104 E11.16841
G1 X100.519 Y134.889 E11.19308
G1 X99.913 Y134.277 E11.26183
G1 X99.502 Y133.834 E11.31007
G1 X99.291 Y133.598 E11.33534
G1 X98.979 Y133.239 E11.3733
G1 X98.741 Y132.954 E11.40294
G1 X98.391 Y132.519 E11.44751
G1 X98.03 Y132.047 E11.49494
G1 X97.594 Y131.537 E11.5485
G1 X97.088 Y131.079 E11.60298
G1 X96.529 Y130.687 E11.65748
G1 X95.925 Y130.369 E11.71197
G1 X95.285 Y130.13 E11.76651
G1 X94.622 Y129.975 E11.82086
G1 X94.063 Y129.91 E11.86578
G1 X93.607 Y129.881 E11.90225
G1 X93.224 Y129.849 E11.93293
G1 X92.626 Y129.785 E11.98094
G1 X92.202 Y129.729 E12.01508
G1 X91.612 Y129.642 E12.06268
G1 X91.225 Y129.576 E12.09402
G1 X90.55 Y129.446 E12.14889
G1 X90.124 Y129.352 E12.18372
G1 X89.178 Y129.117 E12.26153
G1 X88.553 Y128.941 E12.31336
G1 X88.218 Y128.838 E12.34133
G1 X87.609 Y128.638 E12.3925
G1 X87.238 Y128.504 E12.42399
G1 X86.377 Y128.165 E12.49785
G1 X86.213 Y128.093 E12.51215
G1 X85.435 Y127.719 E12.58106
G1 X85.257 Y127.624 E12.59716
G1 X84.488 Y127.182 E12.66796
G1 X84.351 Y127.096 E12.68088
G1 X83.618 Y126.6 E12.75152
G1 X83.463 Y126.487 E12.76683
G1 X82.763 Y125.934 E12.83804
G1 X82.642 Y125.832 E12.85068
G1 X81.97 Y125.217 E12.92339
G1 X81.86 Y125.109 E12.9357
G1 X81.241 Y124.454 E13.00764
G1 X81.133 Y124.328 E13.02088
G1 X80.22 Y123.172 E13.13847
G1 X80.145 Y123.061 E13.14916
G1 X79.639 Y122.292 E13.22264
G1 X79.551 Y122.146 E13.23625
G1 X79.122 Y121.376 E13.30661
G1 X79.042 Y121.22 E13.32061
G1 X78.663 Y120.406 E13.39228
G1 X78.588 Y120.228 E13.4077
G1 X78.275 Y119.403 E13.47814
G1 X78.225 Y119.254 E13.49068
G1 X77.973 Y118.408 E13.56115
G1 X77.923 Y118.216 E13.57698
G1 X77.789 Y117.602 E13.62715
G1 X77.604 Y116.957 E13.68071
G1 X77.335 Y116.331 E13.7351
G1 X76.989 Y115.742 E13.78963
G1 X76.573 Y115.205 E13.84385
G1 X76.218 Y114.838 E13.88461
G1 X75.538 Y114.195 E13.95931
G1 X74.901 Y113.495 E14.03486
G1 X74.715 Y113.276 E14.0578
G1 X74.366 Y112.882 E14.09982
G1 X73.762 Y112.274 E14.16823
G1 X73.614 Y112.114 E14.18562
G1 X73.054 Y111.462 E14.25423
G1 X72.951 Y111.333 E14.26741
G1 X72.416 Y110.61 E14.3392
G1 X72.307 Y110.451 E14.35459
G1 X71.757 Y109.572 E14.43736
G1 X71.342 Y108.804 E14.50704
G1 X71.279 Y108.672 E14.51872
G1 X70.909 Y107.871 E14.58915
G1 X70.826 Y107.674 E14.60621
G1 X70.469 Y106.711 E14.6882
G1 X70.208 Y105.82 E14.76231
G1 X70.163 Y105.64 E14.77712
G1 X69.981 Y104.799 E14.84581
G1 X69.947 Y104.609 E14.86121
G1 X69.807 Y103.579 E14.94419
G1 X69.746 Y102.678 E15.01628
G1 X69.741 Y102.509 E15.02977
G1 X69.746 Y101.606 E15.10185
G1 X69.752 Y101.451 E15.11424
G1 X69.84 Y100.398 E15.19858
G1 X69.976 Y99.506 E15.27061
G1 X70.012 Y99.317 E15.28597
G1 X70.209 Y98.454 E15.35663
G1 X70.252 Y98.289 E15.37024
G1 X70.437 Y97.661 E15.4225
G1 X70.535 Y97.353 E15.4483
G1 X71.039 Y95.974 E15.5655
G1 X71.386 Y95.136 E15.6379
G1 X71.576 Y94.712 E15.67499
G1 X71.889 Y94.055 E15.73308
G1 X72.188 Y93.467 E15.78574
G1 X72.484 Y92.915 E15.83574
G1 X72.715 Y92.504 E15.87337
G1 X73.104 Y91.855 E15.93377
G1 X73.488 Y91.254 E15.9907
G1 X73.941 Y90.583 E16.05533
G1 X74.374 Y89.983 E16.11439
G1 X74.873 Y89.331 E16.17993
G1 X75.333 Y88.765 E16.23815
G1 X75.905 Y88.1 E16.30817
G1 X76.577 Y87.388 E16.38632
G1 X76.684 Y87.283 E16.39829
G1 X77.345 Y86.678 E16.46981
G0 F9000 X76.8 Y87.176
G1 F1125 X76.8 Y115.498 E18.7306
G0 F9000 X75.2 Y113.823
G1 F1125 X75.2 Y88.928 E20.71783
G0 F9000 X73.6 Y91.088
G1 F1125 X73.6 Y112.097 E22.39485
G0 F9000 X72 Y109.96
G1 F1125 X72 Y93.836 E23.68194
G0 F9000 X70.4 Y97.786
G1 F1125 X70.4 Y106.475 E24.37554
G1 F2700 E19.37554
G0 F9000 X69.509 Y107.193
G0 X70.389 Y109.278
G0 X71.225 Y110.705
G0 X77.212 Y119.582
G0 X78.4 Y119.732
G1 F2700 E24.37554
G1 F1125 X78.4 Y85.855 E27.07974
G0 F9000 X80 Y84.861
G1 F1125 X80 Y122.84 E30.11139
G0 F9000 X81.6 Y124.833
G1 F1125 X81.6 Y84.139 E33.35976
G0 F9000 X83.2 Y83.618
G1 F1125 X83.2 Y126.279 E36.76515
G0 F9000 X84.8 Y127.361
G1 F1125 X84.8 Y83.299 E40.28237
G0 F9000 X86.4 Y83.156
G1 F1125 X86.4 Y128.174 E43.8759
G0 F9000 X88 Y128.766
G1 F1125 X88 Y83.174 E47.51525
G0 F9000 X89.6 Y83.371
G1 F1125 X89.6 Y129.221 E51.1752
G0 F9000 X91.2 Y129.571
G1 F1125 X91.2 Y83.74 E54.83362
G0 F9000 X92.8 Y84.069
G1 F1125 X92.8 Y129.803 E58.48431
G0 F9000 X94.4 Y129.949
G1 F1125 X94.4 Y84.503 E62.11201
G0 F9000 X96 Y84.589
G1 F1125 X96 Y130.408 E65.76948
G0 F9000 X97.6 Y131.544
G1 F1125 X97.6 Y84.227 E69.54652
G0 F9000 X99.2 Y83.855
G1 F1125 X99.2 Y133.493 E73.50884
G0 F9000 X100.8 Y135.158
G1 F1125 X100.8 Y83.473 E77.63456
G0 F9000 X102.4 Y83.218
G1 F1125 X102.4 Y136.544 E81.89128
G0 F9000 X104 Y137.706
G1 F1125 X104 Y83.127 E86.24801
G0 F9000 X105.6 Y83.219
G1 F1125 X105.6 Y138.688 E90.67578
G0 F9000 X107.2 Y139.515
G1 F1125 X107.2 Y83.469 E95.14962
G0 F9000 X108.8 Y83.913
G1 F1125 X108.8 Y140.195 E99.64229
G0 F9000 X110.4 Y140.741
G1 F1125 X110.4 Y84.563 E104.12666
G0 F9000 X112 Y85.446
G1 F1125 X112 Y141.174 E108.57511
G0 F9000 X113.6 Y141.488
G1 F1125 X113.6 Y86.633 E112.95387
G0 F9000 X115.2 Y88.223
G1 F1125 X115.2 Y141.695 E117.22224
G0 F9000 X116.8 Y141.793
G1 F1125 X116.8 Y90.215 E121.33942
G0 F9000 X118.4 Y92.214
G1 F1125 X118.4 Y141.785 E125.29639
G0 F9000 X120 Y141.67
G1 F1125 X120 Y93.172 E129.16771
G0 F9000 X121.6 Y93.545
G1 F1125 X121.6 Y141.451 E132.99178
G0 F9000 X123.2 Y141.126
G1 F1125 X123.2 Y93.874 E136.76363
G0 F9000 X124.8 Y94.319
G1 F1125 X124.8 Y140.681 E140.46445
G0 F9000 X126.4 Y140.113
G1 F1125 X126.4 Y94.884 E144.07482
G0 F9000 X128 Y95.58
G1 F1125 X128 Y139.419 E147.57424
G0 F9000 X129.6 Y138.576
G1 F1125 X129.6 Y96.421 E150.93924
G0 F9000 X131.2 Y97.425
G1 F1125 X131.2 Y137.576 E154.14426
G0 F9000 X132.8 Y136.384
G1 F1125 X132.8 Y98.617 E157.15899
G0 F9000 X134.4 Y100.034
G1 F1125 X134.4 Y134.965 E159.94733
G0 F9000 X136 Y133.263
G1 F1125 X136 Y101.738 E162.46379
G0 F9000 X137.6 Y103.837
G1 F1125 X137.6 Y131.159 E164.64475
G0 F9000 X139.2 Y128.447
G1 F1125 X139.2 Y106.557 E166.39211
G0 F9000 X140.8 Y110.591
G1 F1125 X140.8 Y124.413 E167.49544
G1 F2700 E162.49544
G0 F300 X140.8 Y124.413 Z0.54
G0 F9000 X141.928 Y124.345
G0 X142.434 Y122.149
G0 X142.756 Y119.901
G0 X141.73 Y119.356
;TIME_ELAPSED:123.377831
;LAYER:-5
M140 S60
;TYPE:SUPPORT
G1 F2700 E167.49544
G1 F1125 X141.748 Y119.121 E167.51896
G1 X105.871 Y83.244 E172.58159
G1 X105.891 Y83.245 E172.58359
G1 X106.042 Y83.263 E172.59876
G1 X106.946 Y83.413 E172.6902
G1 X107.127 Y83.45 E172.70863
G1 X107.608 Y83.567 E172.75802
G1 X141.801 Y117.759 E177.58295
G1 X141.802 Y117.288 E177.62995
G1 X141.776 Y116.336 E177.72498
G1 X141.775 Y116.319 E177.72668
G1 X109.718 Y84.263 E182.2502
G1 X110.134 Y84.432 E182.295
G1 X110.929 Y84.823 E182.3834
G1 X111.123 Y84.927 E182.40536
G1 X111.857 Y85.356 E182.49019
G1 X112.018 Y85.458 E182.50921
G1 X112.741 Y85.955 E182.59675
G1 X112.905 Y86.076 E182.61709
G1 X113.11 Y86.24 E182.64328
G1 X115.807 Y88.937 E183.02386
G1 X115.947 Y89.106 E183.04576
G1 X116.388 Y89.665 E183.1168
G1 X116.79 Y90.202 E183.18373
G1 X116.988 Y90.479 E183.21771
G1 X117.411 Y91.102 E183.29285
G1 X117.813 Y91.638 E183.3597
G1 X118.289 Y92.126 E183.42772
G1 X118.823 Y92.551 E183.49582
G1 X119.407 Y92.908 E183.56412
G1 X120.03 Y93.186 E183.63219
G0 F9000 X120.067 Y93.197
G1 F1125 X141.648 Y114.778 E186.6775
G1 X141.627 Y114.58 E186.69737
G1 X141.583 Y114.245 E186.73108
G1 X141.512 Y113.748 E186.78117
G1 X141.457 Y113.413 E186.81505
G1 X141.404 Y113.12 E186.84476
G1 X121.881 Y93.596 E189.59973
G1 X122.374 Y93.688 E189.64978
G1 X122.913 Y93.806 E189.70483
G1 X123.244 Y93.883 E189.73874
G1 X123.703 Y94.004 E189.7861
G1 X140.997 Y111.298 E192.22647
G1 X140.978 Y111.224 E192.2341
G1 X140.886 Y110.889 E192.26876
G1 X140.743 Y110.398 E192.31979
G1 X140.646 Y110.088 E192.3522
G1 X140.457 Y109.54 E192.41004
G1 X140.463 Y109.54 E192.41064
G1 X140.354 Y109.241 E192.44239
