;FLAVOR:Marlin
;TIME:2545
;Filament used: 1.44857m
;Layer height: 0.2
;MINX:79.467
;MINY:86.291
;MINZ:0.2
;MAXX:139.536
;MAXY:146.362
;MAXZ:6.2
;Generated with Cura_SteamEngine 4.6.1
M140 S80
M105
M190 S80
M104 S240
M105
M109 S240
M82 ;absolute extrusion mode
; Ender 3 Custom Start G-code
G92 E0 ; Reset Extruder
G28 ; Home all axes
G29 ; BL Touch
G1 Z2.0 F3000 ; Move Z Axis up little to prevent scratching of Heat Bed
G1 X0.1 Y20 Z0.3 F5000.0 ; Move to start position
G1 X0.1 Y200.0 Z0.3 F1500.0 E15 ; Draw the first line
G1 X0.4 Y200.0 Z0.3 F5000.0 ; Move to side a little
G1 X0.4 Y20 Z0.3 F1500.0 E30 ; Draw the second line
G92 E0 ; Reset Extruder
G1 Z2.0 F3000 ; Move Z Axis up little to prevent scratching of Heat Bed
G1 X5 Y20 Z0.3 F5000.0 ; Move over to prevent blob squish
G92 E0
G92 E0
G1 F2700 E-5
;LAYER_COUNT:31
;LAYER:0
M107
G0 F6000 X111.008 Y87.124 Z0.2
;TYPE:SKIRT
G1 F2700 E0
G1 F900 X111.62 Y87.159 E0.02039
G1 X112.062 Y87.194 E0.03514
G1 X112.825 Y87.271 E0.06064
G1 X113.259 Y87.324 E0.07518
G1 X114.115 Y87.452 E0.10397
G1 X114.899 Y87.593 E0.13047
G1 X115.823 Y87.779 E0.16181
G1 X116.156 Y87.852 E0.17315
G1 X116.486 Y87.93 E0.18443
G1 X116.982 Y88.06 E0.20149
G1 X118.264 Y88.432 E0.24588
G1 X118.828 Y88.613 E0.26558
G1 X119.593 Y88.884 E0.29258
G1 X119.931 Y89.011 E0.30459
G1 X120.643 Y89.292 E0.33005
G1 X120.935 Y89.413 E0.34056
G1 X121.304 Y89.572 E0.35392
G1 X121.772 Y89.787 E0.37105
G1 X122.981 Y90.382 E0.41587
G1 X123.486 Y90.648 E0.43485
G1 X124.02 Y90.949 E0.45524
G1 X124.319 Y91.125 E0.46678
G1 X125.041 Y91.565 E0.4949
G1 X125.4 Y91.794 E0.50907
G1 X126.295 Y92.392 E0.54487
G1 X126.6 Y92.604 E0.55722
G1 X126.906 Y92.825 E0.56978
G1 X127.245 Y93.081 E0.58391
G1 X127.934 Y93.628 E0.61317
G1 X128.338 Y93.965 E0.63066
G1 X128.559 Y94.156 E0.64038
G1 X129.257 Y94.773 E0.67136
G1 X129.507 Y95.001 E0.68262
G1 X129.888 Y95.361 E0.70005
G1 X130.194 Y95.663 E0.71435
G1 X130.731 Y96.215 E0.73997
G1 X131.034 Y96.54 E0.75474
G1 X131.554 Y97.127 E0.78083
G1 X131.981 Y97.63 E0.80277
G1 X132.296 Y98.012 E0.81924
G1 X132.648 Y98.465 E0.83832
G1 X133.457 Y99.567 E0.88379
G1 X133.666 Y99.862 E0.89581
G1 X133.905 Y100.213 E0.90994
G1 X134.152 Y100.594 E0.92504
G1 X134.578 Y101.292 E0.95224
G1 X134.917 Y101.887 E0.97501
G1 X135.444 Y102.848 E1.01147
G1 X135.631 Y103.205 E1.02487
G1 X135.757 Y103.458 E1.03427
G1 X135.958 Y103.885 E1.04997
G1 X136.506 Y105.126 E1.09509
G1 X136.729 Y105.673 E1.11474
G1 X136.999 Y106.395 E1.14038
G1 X137.118 Y106.731 E1.15223
G1 X137.285 Y107.23 E1.16973
G1 X137.403 Y107.606 E1.18284
G1 X137.737 Y108.749 E1.22245
G1 X137.831 Y109.093 E1.23431
G1 X137.942 Y109.529 E1.24927
G1 X138.043 Y109.966 E1.26419
G1 X138.192 Y110.699 E1.28907
G1 X138.352 Y111.586 E1.31905
G1 X138.431 Y112.07 E1.33536
G1 X138.494 Y112.523 E1.35057
G1 X138.572 Y113.187 E1.3728
G1 X138.619 Y113.699 E1.38991
G1 X138.706 Y115.004 E1.43341
G1 X138.728 Y115.579 E1.45254
G1 X138.736 Y116.368 E1.47879
G1 X138.734 Y116.736 E1.49103
G1 X138.713 Y117.545 E1.51794
G1 X138.699 Y117.861 E1.52847
G1 X138.666 Y118.439 E1.54772
G1 X138.63 Y118.9 E1.5631
G1 X138.551 Y119.669 E1.58881
G1 X138.501 Y120.075 E1.60242
G1 X138.421 Y120.633 E1.62117
G1 X138.372 Y120.937 E1.63141
G1 X138.238 Y121.691 E1.65688
G1 X138.054 Y122.608 E1.68799
G1 X137.978 Y122.955 E1.6998
G1 X137.89 Y123.326 E1.71248
G1 X137.762 Y123.812 E1.7292
G1 X137.395 Y125.078 E1.77304
G1 X137.217 Y125.632 E1.79239
G1 X136.952 Y126.383 E1.81888
G1 X136.82 Y126.737 E1.83145
G1 X136.613 Y127.261 E1.85019
G1 X136.458 Y127.63 E1.8635
G1 X136.087 Y128.471 E1.89407
G1 X135.906 Y128.859 E1.90831
G1 X135.429 Y129.828 E1.94423
G1 X135.208 Y130.252 E1.96014
G1 X134.985 Y130.656 E1.97548
G1 X134.816 Y130.951 E1.98679
G1 X134.327 Y131.771 E2.01855
G1 X134.092 Y132.146 E2.03327
G1 X133.805 Y132.583 E2.05066
G1 X133.505 Y133.015 E2.06815
G1 X132.697 Y134.117 E2.1136
G1 X132.348 Y134.566 E2.13251
G1 X131.898 Y135.113 E2.15607
G1 X131.661 Y135.391 E2.16822
G1 X130.85 Y136.301 E2.20876
G1 X130.618 Y136.548 E2.22003
G1 X130.246 Y136.924 E2.23763
G1 X129.254 Y137.876 E2.28336
G1 X128.845 Y138.248 E2.30174
G1 X128.141 Y138.85 E2.33255
G1 X127.753 Y139.169 E2.34926
G1 X127.399 Y139.447 E2.36423
G1 X126.765 Y139.923 E2.3906
G1 X126.314 Y140.243 E2.40899
G1 X125.256 Y140.951 E2.45133
G1 X124.79 Y141.247 E2.46969
G1 X124.54 Y141.398 E2.47941
G1 X123.983 Y141.718 E2.50077
G1 X122.971 Y142.272 E2.53915
G1 X122.625 Y142.453 E2.55213
G1 X122.224 Y142.653 E2.56704
G1 X121.849 Y142.83 E2.58083
G1 X121.125 Y143.155 E2.60723
G1 X120.723 Y143.326 E2.62176
G1 X119.946 Y143.631 E2.64952
G1 X118.988 Y143.977 E2.6834
G1 X118.596 Y144.108 E2.69714
G1 X118.223 Y144.225 E2.71015
G1 X117.059 Y144.565 E2.75048
G1 X116.706 Y144.661 E2.76265
G1 X116.288 Y144.767 E2.77699
G1 X115.867 Y144.864 E2.79136
G1 X115.054 Y145.03 E2.81896
G1 X114.271 Y145.17 E2.84541
G1 X113.75 Y145.255 E2.86297
G1 X113.289 Y145.319 E2.87845
G1 X112.603 Y145.399 E2.90142
G1 X112.1 Y145.445 E2.91822
G1 X110.537 Y145.545 E2.97031
G1 X110.001 Y145.559 E2.98815
G1 X109.079 Y145.559 E3.01881
G1 X107.999 Y145.526 E3.05475
G1 X107.56 Y145.501 E3.06937
G1 X107.043 Y145.458 E3.08663
G1 X105.702 Y145.313 E3.13149
G1 X105.152 Y145.238 E3.14995
G1 X104.318 Y145.099 E3.17807
G1 X103.716 Y144.986 E3.19845
G1 X103.306 Y144.9 E3.21238
G1 X102.443 Y144.701 E3.24184
G1 X101.957 Y144.576 E3.25853
G1 X101.141 Y144.345 E3.28673
G1 X100.729 Y144.219 E3.30106
G1 X99.961 Y143.962 E3.328
G1 X99.026 Y143.619 E3.36112
G1 X98.565 Y143.437 E3.37761
G1 X98.189 Y143.28 E3.39116
G1 X97.347 Y142.908 E3.42178
G1 X96.968 Y142.731 E3.43569
G1 X96 Y142.255 E3.47157
G1 X95.608 Y142.052 E3.48625
G1 X95.238 Y141.848 E3.5003
G1 X94.393 Y141.356 E3.53283
G1 X94.028 Y141.127 E3.54716
G1 X92.77 Y140.298 E3.59727
G1 X92.414 Y140.052 E3.61166
G1 X92.087 Y139.816 E3.62507
G1 X91.748 Y139.561 E3.63918
G1 X91.119 Y139.063 E3.66586
G1 X90.66 Y138.683 E3.68568
G1 X90.213 Y138.301 E3.70524
G1 X89.783 Y137.911 E3.72455
G1 X88.824 Y136.992 E3.76873
G1 X88.574 Y136.745 E3.78041
G1 X88.274 Y136.437 E3.79471
G1 X87.974 Y136.116 E3.80933
G1 X87.451 Y135.526 E3.83555
G1 X86.994 Y134.988 E3.85903
G1 X86.648 Y134.567 E3.87715
G1 X86.367 Y134.209 E3.89229
G1 X85.816 Y133.474 E3.92284
G1 X85.539 Y133.087 E3.93867
G1 X85.088 Y132.423 E3.96537
G1 X84.845 Y132.047 E3.98026
G1 X84.417 Y131.346 E4.00758
G1 X84.071 Y130.743 E4.0307
G1 X83.663 Y129.996 E4.05901
G1 X83.465 Y129.614 E4.07332
G1 X82.999 Y128.668 E4.1084
G1 X82.844 Y128.339 E4.12049
G1 X82.659 Y127.927 E4.13551
G1 X82.496 Y127.544 E4.14936
G1 X82.181 Y126.745 E4.17792
G1 X81.977 Y126.175 E4.19806
G1 X81.609 Y125.086 E4.23629
G1 X81.504 Y124.758 E4.24775
G1 X81.418 Y124.472 E4.25768
G1 X81.281 Y123.971 E4.27495
G1 X80.961 Y122.67 E4.31952
G1 X80.839 Y122.104 E4.33877
G1 X80.662 Y121.142 E4.37131
G1 X80.57 Y120.58 E4.39025
G1 X80.505 Y120.12 E4.4057
G1 X80.41 Y119.31 E4.43282
G1 X80.369 Y118.873 E4.44742
G1 X80.311 Y118.087 E4.47364
G1 X80.287 Y117.624 E4.48906
G1 X80.267 Y116.78 E4.51714
G1 X80.27 Y115.594 E4.55658
G1 X80.293 Y114.908 E4.57941
G1 X80.321 Y114.408 E4.59607
G1 X80.366 Y113.864 E4.61422
G1 X80.518 Y112.48 E4.66053
G1 X80.598 Y111.904 E4.67987
G1 X80.704 Y111.273 E4.70116
G1 X80.764 Y110.95 E4.71208
G1 X80.955 Y110.001 E4.74428
G1 X81.027 Y109.672 E4.75548
G1 X81.14 Y109.193 E4.77185
G1 X81.253 Y108.755 E4.78689
G1 X81.466 Y108.003 E4.81289
G1 X81.59 Y107.599 E4.82695
G1 X81.876 Y106.744 E4.85693
G1 X82.196 Y105.873 E4.8878
G1 X82.391 Y105.38 E4.90543
G1 X82.541 Y105.021 E4.91837
G1 X82.914 Y104.174 E4.94915
G1 X83.094 Y103.788 E4.96332
G1 X83.565 Y102.829 E4.99885
G1 X83.81 Y102.361 E5.01642
G1 X84.139 Y101.774 E5.0388
G1 X84.48 Y101.191 E5.06127
G1 X84.874 Y100.557 E5.08609
G1 X85.191 Y100.073 E5.10534
G1 X85.493 Y99.638 E5.12295
G1 X86.309 Y98.523 E5.16891
G1 X86.66 Y98.071 E5.18794
G1 X87.075 Y97.566 E5.20968
G1 X87.315 Y97.284 E5.222
G1 X88.168 Y96.327 E5.26464
G1 X88.414 Y96.066 E5.27656
G1 X88.775 Y95.702 E5.29362
G1 X89.737 Y94.779 E5.33796
G1 X90.148 Y94.406 E5.35642
G1 X90.719 Y93.917 E5.38142
G1 X91.161 Y93.55 E5.40053
G1 X91.651 Y93.167 E5.42122
G1 X92.749 Y92.363 E5.46648
G1 X93.041 Y92.157 E5.47836
G1 X93.4 Y91.913 E5.4928
G1 X93.755 Y91.683 E5.50687
G1 X94.19 Y91.413 E5.5239
G1 X94.48 Y91.239 E5.53515
G1 X95.061 Y90.907 E5.5574
G1 X96.024 Y90.379 E5.59393
G1 X96.366 Y90.2 E5.60677
G1 X96.772 Y89.997 E5.62187
G1 X97.146 Y89.819 E5.63564
G1 X97.85 Y89.502 E5.66132
G1 X98.241 Y89.336 E5.67545
G1 X99.082 Y89.004 E5.70552
G1 X100.014 Y88.668 E5.73848
G1 X100.897 Y88.378 E5.76939
G1 X101.476 Y88.203 E5.78951
G1 X101.938 Y88.075 E5.80545
G1 X102.725 Y87.877 E5.83244
G1 X103.114 Y87.788 E5.84571
G1 X103.632 Y87.679 E5.86332
G1 X103.989 Y87.61 E5.87541
G1 X105.004 Y87.434 E5.90968
G1 X105.631 Y87.345 E5.93074
G1 X106.957 Y87.199 E5.97511
G1 X107.301 Y87.167 E5.9866
G1 X107.696 Y87.137 E5.99978
G1 X108.167 Y87.112 E6.01546
G1 X109.044 Y87.091 E6.04464
G1 X110.085 Y87.095 E6.07927
G1 X111.008 Y87.124 E6.10998
G0 F6000 X111.031 Y86.724
G1 F900 X111.643 Y86.759 E6.13037
G1 X112.102 Y86.796 E6.14568
G1 X112.865 Y86.873 E6.17119
G1 X113.316 Y86.928 E6.1863
G1 X114.184 Y87.058 E6.21549
G1 X114.978 Y87.2 E6.24232
G1 X115.902 Y87.386 E6.27367
G1 X116.248 Y87.462 E6.28545
G1 X116.578 Y87.54 E6.29673
G1 X117.094 Y87.676 E6.31448
G1 X118.376 Y88.048 E6.35888
G1 X118.962 Y88.236 E6.37935
G1 X119.727 Y88.507 E6.40634
G1 X120.078 Y88.639 E6.41881
G1 X121.094 Y89.045 E6.4552
G1 X121.463 Y89.204 E6.46857
G1 X121.949 Y89.428 E6.48637
G1 X123.158 Y90.023 E6.53118
G1 X123.682 Y90.3 E6.5509
G1 X124.216 Y90.601 E6.57128
G1 X124.527 Y90.783 E6.58327
G1 X125.249 Y91.223 E6.61139
G1 X125.622 Y91.461 E6.62611
G1 X126.517 Y92.059 E6.66191
G1 X126.834 Y92.28 E6.67476
G1 X127.14 Y92.501 E6.68732
G1 X127.492 Y92.766 E6.70197
G1 X128.19 Y93.321 E6.73163
G1 X128.824 Y93.856 E6.75922
G1 X129.522 Y94.473 E6.79021
G1 X129.782 Y94.71 E6.80191
G1 X130.163 Y95.07 E6.81934
G1 X130.481 Y95.384 E6.83421
G1 X131.018 Y95.936 E6.85982
G1 X131.333 Y96.274 E6.87519
G1 X131.858 Y96.867 E6.90153
G1 X132.289 Y97.375 E6.92369
G1 X132.604 Y97.757 E6.94016
G1 X132.971 Y98.228 E6.96002
G1 X133.78 Y99.33 E7.00548
G1 X133.997 Y99.637 E7.01799
G1 X134.236 Y99.988 E7.03211
G1 X134.492 Y100.383 E7.04777
G1 X134.757 Y100.812 E7.06454
G1 X134.924 Y101.092 E7.07538
G1 X135.268 Y101.694 E7.09844
G1 X135.795 Y102.655 E7.1349
G1 X135.989 Y103.027 E7.14885
G1 X136.115 Y103.28 E7.15825
G1 X136.324 Y103.723 E7.17454
G1 X136.872 Y104.964 E7.21966
G1 X137.103 Y105.533 E7.24009
G1 X137.373 Y106.255 E7.26573
G1 X137.497 Y106.604 E7.27805
G1 X137.664 Y107.103 E7.29555
G1 X137.787 Y107.494 E7.30918
G1 X138.121 Y108.637 E7.34879
G1 X138.218 Y108.995 E7.36112
G1 X138.329 Y109.431 E7.37609
G1 X138.434 Y109.884 E7.39155
G1 X138.586 Y110.627 E7.41678
G1 X138.747 Y111.521 E7.44699
G1 X138.826 Y112.005 E7.4633
G1 X138.892 Y112.476 E7.47912
G1 X138.97 Y113.14 E7.50136
G1 X139.019 Y113.672 E7.51913
G1 X139.106 Y114.977 E7.56263
G1 X139.128 Y115.575 E7.58253
G1 X139.136 Y116.364 E7.60877
G1 X139.133 Y116.746 E7.62148
G1 X139.099 Y117.884 E7.65935
G1 X139.066 Y118.462 E7.6786
G1 X139.028 Y118.941 E7.69458
G1 X138.949 Y119.71 E7.7203
G1 X138.897 Y120.131 E7.7344
G1 X138.817 Y120.689 E7.75315
G1 X138.766 Y121.006 E7.76383
G1 X138.63 Y121.769 E7.78961
G1 X138.446 Y122.686 E7.82072
G1 X138.367 Y123.047 E7.83301
G1 X138.279 Y123.418 E7.84569
G1 X138.146 Y123.923 E7.86306
G1 X137.779 Y125.189 E7.9069
G1 X137.594 Y125.765 E7.92702
G1 X137.329 Y126.516 E7.95351
G1 X137.192 Y126.884 E7.96657
G1 X136.985 Y127.408 E7.98531
G1 X136.824 Y127.791 E7.99913
G1 X136.453 Y128.632 E8.0297
G1 X136.265 Y129.035 E8.04449
G1 X135.788 Y130.004 E8.08041
G1 X135.558 Y130.445 E8.09696
G1 X135.335 Y130.849 E8.1123
G1 X135.159 Y131.156 E8.12407
G1 X134.67 Y131.976 E8.15583
G1 X134.426 Y132.366 E8.17113
G1 X134.139 Y132.803 E8.18852
G1 X133.827 Y133.252 E8.2067
G1 X133.019 Y134.354 E8.25215
G1 X132.657 Y134.82 E8.27178
G1 X132.207 Y135.367 E8.29534
G1 X131.96 Y135.657 E8.30801
G1 X131.354 Y136.342 E8.33843
G1 X130.909 Y136.822 E8.3602
G1 X130.523 Y137.213 E8.37847
G1 X129.531 Y138.165 E8.4242
G1 X129.106 Y138.551 E8.4433
G1 X128.395 Y139.159 E8.47441
G1 X128.007 Y139.478 E8.49112
G1 X127.639 Y139.767 E8.50668
G1 X127.005 Y140.243 E8.53305
G1 X126.536 Y140.575 E8.55216
G1 X125.478 Y141.283 E8.5945
G1 X125.001 Y141.587 E8.61332
G1 X124.742 Y141.743 E8.62337
G1 X124.175 Y142.069 E8.64513
G1 X123.163 Y142.623 E8.6835
G1 X122.804 Y142.811 E8.69698
G1 X122.403 Y143.011 E8.71188
G1 X122.013 Y143.195 E8.72622
G1 X121.289 Y143.52 E8.75262
G1 X120.871 Y143.697 E8.76772
G1 X120.083 Y144.007 E8.79588
G1 X119.115 Y144.356 E8.83011
G1 X118.723 Y144.487 E8.84385
G1 X118.335 Y144.609 E8.85738
G1 X117.171 Y144.949 E8.89771
G1 X116.805 Y145.049 E8.91033
G1 X116.387 Y145.155 E8.92468
G1 X115.949 Y145.256 E8.93963
G1 X115.125 Y145.424 E8.9676
G1 X114.336 Y145.565 E8.99425
G1 X113.815 Y145.65 E9.01181
G1 X113.336 Y145.717 E9.0279
G1 X112.65 Y145.797 E9.05087
G1 X112.127 Y145.845 E9.06834
G1 X110.881 Y145.928 E9.10987
G1 X110.325 Y145.952 E9.12838
G1 X110.003 Y145.959 E9.13909
G1 X109.398 Y145.962 E9.15922
G1 X109.068 Y145.958 E9.17019
G1 X107.976 Y145.925 E9.20653
G1 X107.537 Y145.9 E9.22115
G1 X107 Y145.856 E9.23907
G1 X105.659 Y145.711 E9.28394
G1 X105.088 Y145.633 E9.3031
G1 X104.244 Y145.492 E9.33156
G1 X103.642 Y145.379 E9.35194
G1 X103.216 Y145.29 E9.36641
G1 X102.353 Y145.091 E9.39587
G1 X101.848 Y144.961 E9.41321
G1 X101.032 Y144.73 E9.44142
G1 X100.604 Y144.599 E9.45631
G1 X99.825 Y144.338 E9.48363
G1 X98.88 Y143.991 E9.51711
G1 X98.419 Y143.809 E9.5336
G1 X98.027 Y143.646 E9.54772
G1 X97.185 Y143.274 E9.57834
G1 X96.792 Y143.09 E9.59277
G1 X95.824 Y142.614 E9.62865
G1 X95.416 Y142.403 E9.64392
G1 X95.04 Y142.195 E9.65822
G1 X94.417 Y141.837 E9.68211
G1 X94.187 Y141.699 E9.69104
G1 X93.808 Y141.461 E9.70592
G1 X92.55 Y140.632 E9.75603
G1 X92.18 Y140.376 E9.77099
G1 X91.853 Y140.14 E9.78441
G1 X91.501 Y139.875 E9.79906
G1 X90.865 Y139.372 E9.82603
G1 X90.4 Y138.987 E9.84611
G1 X89.953 Y138.605 E9.86567
G1 X89.506 Y138.2 E9.88573
G1 X88.547 Y137.281 E9.92991
G1 X88.288 Y137.024 E9.94204
G1 X87.988 Y136.716 E9.95634
G1 X87.676 Y136.382 E9.97154
G1 X87.147 Y135.786 E9.99805
G1 X86.685 Y135.242 E10.02179
G1 X86.339 Y134.821 E10.03991
G1 X86.047 Y134.449 E10.05564
G1 X85.496 Y133.714 E10.08619
G1 X85.208 Y133.312 E10.10264
G1 X84.757 Y132.648 E10.12934
G1 X84.504 Y132.257 E10.14483
G1 X84.071 Y131.547 E10.17249
G1 X83.72 Y130.935 E10.19595
G1 X83.312 Y130.188 E10.22426
G1 X83.106 Y129.791 E10.23914
G1 X82.64 Y128.845 E10.27421
G1 X82.479 Y128.503 E10.28679
G1 X82.294 Y128.091 E10.30181
G1 X82.125 Y127.693 E10.31619
G1 X81.925 Y127.194 E10.33407
G1 X81.806 Y126.882 E10.34518
G1 X81.598 Y126.303 E10.36564
G1 X81.23 Y125.214 E10.40387
G1 X81.121 Y124.873 E10.41578
G1 X81.035 Y124.587 E10.42571
G1 X80.893 Y124.067 E10.44364
G1 X80.573 Y122.766 E10.4882
G1 X80.446 Y122.177 E10.50824
G1 X80.267 Y121.206 E10.54108
G1 X80.175 Y120.644 E10.56002
G1 X80.108 Y120.167 E10.57604
G1 X80.013 Y119.357 E10.60317
G1 X79.97 Y118.902 E10.61837
G1 X79.912 Y118.116 E10.64458
G1 X79.887 Y117.635 E10.6606
G1 X79.867 Y116.781 E10.68901
G1 X79.87 Y115.583 E10.72886
G1 X79.894 Y114.885 E10.75209
G1 X79.922 Y114.385 E10.76875
G1 X79.968 Y113.821 E10.78757
G1 X80.12 Y112.437 E10.83388
G1 X80.203 Y111.838 E10.85399
G1 X80.309 Y111.207 E10.87527
G1 X80.371 Y110.872 E10.8866
G1 X80.562 Y109.923 E10.9188
G1 X80.637 Y109.58 E10.93048
G1 X80.75 Y109.101 E10.94684
G1 X80.868 Y108.646 E10.96248
G1 X81.081 Y107.894 E10.98847
G1 X81.21 Y107.474 E11.00309
G1 X81.5 Y106.607 E11.03349
G1 X81.824 Y105.726 E11.06472
G1 X82.019 Y105.233 E11.08235
G1 X82.175 Y104.86 E11.0958
G1 X82.548 Y104.013 E11.12658
G1 X82.735 Y103.612 E11.14129
G1 X83.206 Y102.653 E11.17683
G1 X83.46 Y102.166 E11.1951
G1 X83.794 Y101.572 E11.21776
G1 X84.135 Y100.989 E11.24023
G1 X84.54 Y100.338 E11.26573
G1 X84.857 Y99.854 E11.28497
G1 X85.17 Y99.402 E11.30326
G1 X85.986 Y98.287 E11.34921
