;FLAVOR:Marlin
;TIME:1027
;Filament used: 0.786427m
;Layer height: 0.2
;MINX:68.688
;MINY:74.903
;MINZ:0.24
;MAXX:122.323
;MAXY:125.854
;MAXZ:5.69
;Generated with Cura_SteamEngine 4.3.0
M140 S60
M105
M190 S60
M104 S200
M105
M109 S200
M82 ;absolute extrusion mode
M201 X500.00 Y500.00 Z100.00 E5000.00 ;Setup machine max acceleration
M203 X500.00 Y500.00 Z10.00 E50.00 ;Setup machine max feedrate
M204 P500.00 R1000.00 T500.00 ;Setup Print/Retract/Travel acceleration
M205 X8.00 Y8.00 Z0.40 E5.00 ;Setup Jerk
M220 S100 ;Reset Feedrate
M221 S100 ;Reset Flowrate

G28 ;Home
G29 ;Mr Probe

G92 E0 ;Reset Extruder
G1 Z2.0 F3000 ;Move Z Axis up
G1 X10.1 Y20 Z0.28 F5000.0 ;Move to start position
G1 X10.1 Y200.0 Z0.28 F1500.0 E15 ;Draw the first line
G1 X10.4 Y200.0 Z0.28 F5000.0 ;Move to side a little
G1 X10.4 Y20 Z0.28 F1500.0 E30 ;Draw the second line
G92 E0 ;Reset Extruder
G1 Z2.0 F3000 ;Move Z Axis up
G92 E0
G92 E0
G1 F2700 E-5
;LAYER_COUNT:23
;LAYER:-6
M107
G0 F9000 X76.747 Y80.065 Z0.24
;TYPE:SUPPORT-INTERFACE
G1 F2700 E0
G1 F1125 X77.412 Y79.461 E0.07171
G1 X77.532 Y79.36 E0.08423
G1 X78.369 Y78.712 E0.16873
G1 X79.123 Y78.207 E0.24117
G1 X79.261 Y78.122 E0.2541
G1 X80.188 Y77.599 E0.33907
G1 X81.002 Y77.212 E0.41101
G1 X81.149 Y77.149 E0.42378
G1 X82.144 Y76.766 E0.50889
G1 X82.995 Y76.505 E0.57994
G1 X83.181 Y76.455 E0.59531
G1 X84.028 Y76.261 E0.66468
G1 X84.238 Y76.221 E0.68174
G1 X85.255 Y76.069 E0.76382
G1 X86.098 Y75.998 E0.83135
G1 X87.052 Y75.969 E0.90754
G1 X87.221 Y75.97 E0.92103
G1 X88.111 Y76.009 E0.99214
G1 X88.287 Y76.023 E1.00624
G1 X89.154 Y76.123 E1.0759
G1 X89.349 Y76.153 E1.09165
G1 X90.379 Y76.355 E1.17544
G1 X91.139 Y76.561 E1.23829
G1 X91.652 Y76.672 E1.28019
G1 X92.285 Y76.78 E1.33145
G1 X92.901 Y76.923 E1.38193
G1 X93.984 Y77.241 E1.47203
G1 X94.637 Y77.39 E1.52549
G1 X95.317 Y77.455 E1.58002
G1 X95.999 Y77.434 E1.63449
G1 X96.669 Y77.328 E1.68863
G1 X97.058 Y77.226 E1.72074
G1 X97.875 Y76.978 E1.78889
G1 X98.029 Y76.937 E1.80161
G1 X98.934 Y76.733 E1.87567
G1 X99.068 Y76.709 E1.88653
G1 X99.26 Y76.68 E1.90203
G1 X99.81 Y76.567 E1.94685
G1 X100.679 Y76.338 E2.01859
G1 X100.824 Y76.305 E2.03046
G1 X101.706 Y76.141 E2.10207
G1 X101.878 Y76.115 E2.11596
G1 X102.784 Y76.014 E2.18872
G1 X102.939 Y76.002 E2.20113
G1 X104.007 Y75.965 E2.28644
G1 X104.916 Y75.994 E2.35904
G1 X105.9 Y76.083 E2.4379
G1 X106.032 Y76.1 E2.44853
G1 X106.941 Y76.251 E2.52208
G1 X107.122 Y76.288 E2.53683
G1 X107.985 Y76.496 E2.60769
G1 X108.131 Y76.537 E2.61979
G1 X109.137 Y76.863 E2.70421
G1 X109.983 Y77.204 E2.77702
G1 X110.16 Y77.284 E2.79253
G1 X110.919 Y77.656 E2.86
G1 X111.121 Y77.764 E2.87828
G1 X111.863 Y78.197 E2.94686
G1 X112.015 Y78.294 E2.96125
G1 X112.744 Y78.795 E3.03186
G1 X112.905 Y78.915 E3.04789
G1 X113.574 Y79.45 E3.11627
G1 X113.724 Y79.579 E3.13206
G1 X114.485 Y80.291 E3.21525
G1 X115.064 Y80.907 E3.28273
G1 X115.43 Y81.32 E3.32678
G1 X115.976 Y81.977 E3.39497
G1 X116.374 Y82.483 E3.44636
G1 X116.791 Y83.039 E3.50184
G1 X117.077 Y83.441 E3.54122
G1 X117.488 Y84.051 E3.59994
G1 X117.85 Y84.618 E3.65363
G1 X118.255 Y85.292 E3.7164
G1 X118.491 Y85.707 E3.75451
G1 X118.83 Y86.339 E3.81176
G1 X119.133 Y86.941 E3.86556
G1 X119.452 Y87.614 E3.92501
G1 X119.676 Y88.122 E3.96933
G1 X119.949 Y88.788 E4.02678
G1 X120.17 Y89.363 E4.07596
G1 X120.434 Y90.109 E4.13912
G1 X120.542 Y90.442 E4.16707
G1 X120.806 Y91.355 E4.24293
G1 X120.851 Y91.535 E4.25774
G1 X121.033 Y92.404 E4.32862
G1 X121.064 Y92.582 E4.34304
G1 X121.198 Y93.61 E4.42579
G1 X121.258 Y94.656 E4.50943
G1 X121.247 Y95.601 E4.58486
G1 X121.239 Y95.765 E4.59797
G1 X121.164 Y96.655 E4.66927
G1 X121.145 Y96.814 E4.68205
G1 X120.972 Y97.864 E4.76699
G1 X120.764 Y98.751 E4.83972
G1 X120.726 Y98.891 E4.8513
G1 X120.451 Y99.767 E4.92459
G1 X120.391 Y99.935 E4.93883
G1 X120.07 Y100.746 E5.00845
G1 X119.999 Y100.911 E5.02279
G1 X119.63 Y101.682 E5.09102
G1 X119.176 Y102.513 E5.16661
G1 X119.101 Y102.639 E5.17832
G1 X118.606 Y103.408 E5.25132
G1 X118.507 Y103.55 E5.26514
G1 X117.877 Y104.377 E5.34812
G1 X117.274 Y105.065 E5.42115
G1 X117.154 Y105.192 E5.4351
G1 X116.728 Y105.613 E5.48291
G1 X116.391 Y105.979 E5.52262
G1 X115.935 Y106.526 E5.57947
G1 X115.829 Y106.644 E5.59213
G1 X115.209 Y107.288 E5.66349
G1 X115.066 Y107.426 E5.67935
G1 X114.834 Y107.64 E5.70455
G1 X114.37 Y108.123 E5.75801
G1 X113.963 Y108.672 E5.81256
G1 X113.629 Y109.267 E5.86703
G1 X113.373 Y109.9 E5.92153
G1 X113.315 Y110.117 E5.93946
G1 X113.305 Y110.117 E5.94026
G1 X112.991 Y111.401 E6.04578
G1 X112.948 Y111.549 E6.05808
G1 X112.679 Y112.382 E6.12795
G1 X112.606 Y112.581 E6.14487
G1 X112.283 Y113.378 E6.21352
G1 X112.2 Y113.563 E6.22971
G1 X111.813 Y114.345 E6.29935
G1 X111.729 Y114.501 E6.3135
G1 X111.182 Y115.42 E6.39887
G1 X110.779 Y116.015 E6.45623
G1 X110.601 Y116.248 E6.47964
G1 X110.177 Y116.899 E6.54165
G1 X109.936 Y117.337 E6.58156
G1 X109.845 Y117.489 E6.5957
G1 X109.102 Y118.601 E6.70246
G1 X108.521 Y119.35 E6.77812
G1 X108.398 Y119.498 E6.79349
G1 X107.815 Y120.145 E6.86301
G1 X107.682 Y120.282 E6.87825
G1 X107.048 Y120.889 E6.94831
G1 X106.897 Y121.024 E6.96448
G1 X106.245 Y121.565 E7.03211
G1 X106.099 Y121.678 E7.04685
G1 X105.353 Y122.209 E7.11994
G1 X105.237 Y122.285 E7.13101
G1 X104.444 Y122.767 E7.20509
G1 X104.307 Y122.843 E7.21759
G1 X103.502 Y123.255 E7.28978
G1 X103.354 Y123.323 E7.30278
G1 X102.521 Y123.675 E7.37497
G1 X102.385 Y123.727 E7.38659
G1 X101.372 Y124.065 E7.47183
G1 X100.491 Y124.294 E7.5445
G1 X100.335 Y124.327 E7.55722
G1 X99.19 Y124.53 E7.65005
G1 X98.948 Y124.563 E7.66954
G1 X98.519 Y124.616 E7.70405
G1 X98.067 Y124.664 E7.74033
G1 X97.35 Y124.724 E7.79777
G1 X96.673 Y124.762 E7.85189
G1 X95.878 Y124.787 E7.91538
G1 X95.202 Y124.788 E7.96935
G1 X94.498 Y124.772 E8.02556
G1 X94.08 Y124.754 E8.05895
G1 X93.372 Y124.707 E8.11559
G1 X92.807 Y124.652 E8.16091
G1 X92.034 Y124.561 E8.22304
G1 X91.094 Y124.418 E8.29894
G1 X90.926 Y124.386 E8.31259
G1 X90.066 Y124.188 E8.38303
G1 X89.863 Y124.134 E8.3998
G1 X89.037 Y123.882 E8.46874
G1 X88.859 Y123.819 E8.48381
G1 X88.019 Y123.493 E8.55573
G1 X87.874 Y123.43 E8.56835
G1 X87.076 Y123.05 E8.63891
G1 X86.913 Y122.965 E8.65358
G1 X86.134 Y122.522 E8.72512
G1 X85.992 Y122.435 E8.73841
G1 X85.252 Y121.939 E8.80952
G1 X85.103 Y121.831 E8.82421
G1 X84.4 Y121.283 E8.89536
G1 X84.276 Y121.179 E8.90828
G1 X83.617 Y120.581 E8.97931
G1 X83.478 Y120.445 E8.99484
G1 X82.883 Y119.822 E9.0636
G1 X82.74 Y119.659 E9.08091
G1 X81.896 Y118.604 E9.18876
G1 X81.85 Y118.538 E9.19518
G1 X81.317 Y117.755 E9.27079
G1 X81.228 Y117.614 E9.2841
G1 X80.759 Y116.801 E9.35902
G1 X80.272 Y116.09 E9.42782
G1 X79.731 Y115.291 E9.50484
G1 X79.635 Y115.135 E9.51946
G1 X79.211 Y114.397 E9.5874
G1 X79.104 Y114.194 E9.60572
G1 X78.735 Y113.428 E9.67359
G1 X78.657 Y113.25 E9.6891
G1 X78.333 Y112.425 E9.75985
G1 X78.275 Y112.263 E9.77359
G1 X78.01 Y111.413 E9.84466
G1 X77.969 Y111.261 E9.85723
G1 X77.76 Y110.367 E9.93052
G1 X77.566 Y109.725 E9.98405
G1 X77.288 Y109.102 E10.03851
G1 X76.933 Y108.518 E10.09306
G1 X76.51 Y107.988 E10.14719
G1 X76.212 Y107.683 E10.18123
G1 X75.509 Y107.003 E10.2593
G1 X75.399 Y106.888 E10.27201
G1 X74.788 Y106.203 E10.34528
G1 X74.65 Y106.035 E10.36263
G1 X74.326 Y105.678 E10.40112
G1 X73.765 Y105.116 E10.4645
G1 X73.609 Y104.946 E10.48292
G1 X73.052 Y104.297 E10.55119
G1 X72.937 Y104.152 E10.56596
G1 X72.412 Y103.441 E10.63652
G1 X72.306 Y103.286 E10.6515
G1 X71.75 Y102.397 E10.7352
G1 X71.379 Y101.714 E10.79725
G1 X71.313 Y101.58 E10.80917
G1 X70.934 Y100.769 E10.88063
G1 X70.863 Y100.602 E10.89511
G1 X70.548 Y99.777 E10.96561
G1 X70.483 Y99.59 E10.98141
G1 X70.229 Y98.742 E11.05207
G1 X70.187 Y98.579 E11.06551
G1 X69.966 Y97.567 E11.1482
G1 X69.831 Y96.641 E11.22289
G1 X69.814 Y96.485 E11.23542
G1 X69.749 Y95.589 E11.30713
G1 X69.743 Y95.411 E11.32135
G1 X69.743 Y94.536 E11.39119
G1 X69.749 Y94.367 E11.40469
G1 X69.815 Y93.453 E11.47784
G1 X69.834 Y93.294 E11.49062
G1 X69.965 Y92.403 E11.56251
G1 X69.992 Y92.255 E11.57452
G1 X70.191 Y91.362 E11.64755
G1 X70.231 Y91.209 E11.66018
G1 X70.474 Y90.385 E11.72875
G1 X70.584 Y90.053 E11.75667
G1 X70.827 Y89.372 E11.81439
G1 X71.054 Y88.779 E11.86507
G1 X71.318 Y88.132 E11.92085
G1 X71.508 Y87.697 E11.95875
G1 X71.855 Y86.964 E12.02348
G1 X72.153 Y86.372 E12.07639
G1 X72.536 Y85.66 E12.14092
G1 X72.881 Y85.061 E12.1961
G1 X73.301 Y84.375 E12.26031
G1 X73.693 Y83.777 E12.31739
G1 X74.235 Y83.005 E12.39268
G1 X74.59 Y82.529 E12.44008
G1 X74.891 Y82.139 E12.47941
G1 X75.109 Y81.868 E12.50717
G1 X75.604 Y81.281 E12.56846
G1 X75.984 Y80.854 E12.61409
G1 X76.61 Y80.198 E12.68647
G1 X76.747 Y80.065 E12.70171
G0 F9000 X76.8 Y80.016
G1 F1125 X76.8 Y108.351 E14.96354
G0 F9000 X75.2 Y106.664
G1 F1125 X75.2 Y81.76 E16.95148
G0 F9000 X73.6 Y83.918
G1 F1125 X73.6 Y104.935 E18.62915
G0 F9000 X72 Y102.796
G1 F1125 X72 Y86.675 E19.916
G0 F9000 X70.4 Y90.635
G1 F1125 X70.4 Y99.312 E20.60863
G1 F2700 E15.60863
G0 F9000 X69.549 Y100.146
G0 X70.426 Y102.187
G0 X71.334 Y103.707
G0 X77.268 Y112.608
G0 X78.4 Y112.595
G1 F2700 E20.60863
G1 F1125 X78.4 Y78.691 E23.315
G0 F9000 X80 Y77.705
G1 F1125 X80 Y115.688 E26.34696
G0 F9000 X81.6 Y118.17
G1 F1125 X81.6 Y76.975 E29.63533
G0 F9000 X83.2 Y76.45
G1 F1125 X83.2 Y120.153 E33.12389
G0 F9000 X84.8 Y121.594
G1 F1125 X84.8 Y76.137 E36.75246
G0 F9000 X86.4 Y75.988
G1 F1125 X86.4 Y122.673 E40.47906
G0 F9000 X88 Y123.484
G1 F1125 X88 Y76.005 E44.26904
G0 F9000 X89.6 Y76.203
G1 F1125 X89.6 Y124.053 E48.08863
G0 F9000 X91.2 Y124.434
G1 F1125 X91.2 Y76.575 E51.90895
G0 F9000 X92.8 Y76.9
G1 F1125 X92.8 Y124.651 E55.72064
G0 F9000 X94.4 Y124.767
G1 F1125 X94.4 Y77.336 E59.50679
G0 F9000 X96 Y77.433
G1 F1125 X96 Y124.784 E63.28655
G0 F9000 X97.6 Y124.704
G1 F1125 X97.6 Y77.061 E67.08962
G0 F9000 X99.2 Y76.689
G1 F1125 X99.2 Y124.529 E70.90841
G0 F9000 X100.8 Y124.214
G1 F1125 X100.8 Y76.31 E74.73232
G0 F9000 X102.4 Y76.056
G1 F1125 X102.4 Y123.722 E78.53722
G0 F9000 X104 Y123.001
G1 F1125 X104 Y75.965 E82.29184
G0 F9000 X105.6 Y76.056
G1 F1125 X105.6 Y122.034 E85.962
G0 F9000 X107.2 Y120.744
G1 F1125 X107.2 Y76.307 E89.50916
G0 F9000 X108.8 Y76.754
G1 F1125 X108.8 Y118.991 E92.8807
G0 F9000 X110.4 Y116.557
G1 F1125 X110.4 Y77.402 E96.00622
G0 F9000 X112 Y78.285
G1 F1125 X112 Y113.968 E98.85459
G1 F2700 E93.85459
G0 F9000 X113.166 Y114.011
G0 X113.683 Y112.737
G0 X114.384 Y110.237
G0 X113.6 Y109.339
G1 F2700 E98.85459
G1 F1125 X113.6 Y79.473 E101.23862
G0 F9000 X115.2 Y81.061
G1 F1125 X115.2 Y107.297 E103.33289
G0 F9000 X116.8 Y105.542
G1 F1125 X116.8 Y83.052 E105.12814
G0 F9000 X118.4 Y85.547
G1 F1125 X118.4 Y103.691 E106.57648
G0 F9000 X120 Y100.909
G1 F1125 X120 Y88.921 E107.53341
G1 F2700 E102.53341
G0 F300 X120 Y88.921 Z0.54
G0 F9000 X120.892 Y88.279
G0 X119.776 Y85.853
G0 X118.381 Y83.472
G0 X116.81 Y81.316
G0 X115.974 Y81.977
;TIME_ELAPSED:82.224762
;LAYER:-5
M140 S60
;TYPE:SUPPORT
G1 F2700 E107.53341
G1 F1125 X115.429 Y81.32 E107.61858
G1 X115.063 Y80.907 E107.67365
G1 X114.484 Y80.291 E107.758
G1 X113.723 Y79.578 E107.86206
G1 X113.573 Y79.449 E107.8818
G1 X112.904 Y78.915 E107.96721
G1 X112.743 Y78.795 E107.98724
G1 X112.72 Y78.779 E107.99004
G1 X116.184 Y82.243 E108.47885
G1 X116.373 Y82.483 E108.50933
G1 X116.79 Y83.039 E108.57867
G1 X117.076 Y83.44 E108.62782
G1 X117.487 Y84.05 E108.70121
G1 X117.849 Y84.618 E108.76842
G1 X118.254 Y85.291 E108.84679
G1 X118.489 Y85.706 E108.89438
G1 X118.786 Y86.259 E108.95701
G1 X109.561 Y77.034 E110.25876
G1 X109.136 Y76.862 E110.30451
G1 X108.13 Y76.536 E110.41003
G1 X107.984 Y76.495 E110.42516
G1 X107.49 Y76.377 E110.47584
G1 X119.979 Y88.866 E112.23817
G1 X120.169 Y89.363 E112.29126
G1 X120.433 Y90.108 E112.37013
G1 X120.541 Y90.442 E112.40515
G1 X120.705 Y91.006 E112.46376
G1 X105.77 Y76.071 E114.57125
G1 X104.914 Y75.994 E114.65701
G1 X104.257 Y75.973 E114.7226
G1 X121.092 Y92.808 E117.0982
G1 X121.197 Y93.61 E117.1789
G1 X121.241 Y94.371 E117.25496
G1 X102.876 Y76.006 E119.84646
G1 X102.783 Y76.013 E119.85577
G1 X101.877 Y76.115 E119.94674
G1 X101.705 Y76.14 E119.96408
G1 X101.614 Y76.158 E119.97334
G1 X121.236 Y95.781 E122.74229
G1 X121.163 Y96.655 E122.8298
G1 X121.144 Y96.814 E122.84578
G1 X121.104 Y97.062 E122.87084
G1 X100.442 Y76.4 E125.78647
G1 X99.809 Y76.566 E125.85177
G1 X99.299 Y76.672 E125.90374
G1 X120.88 Y98.253 E128.94906
G1 X120.763 Y98.75 E129
G1 X120.725 Y98.891 E129.01457
G1 X120.577 Y99.364 E129.06403
G1 X98.128 Y76.914 E132.23189
G1 X98.028 Y76.936 E132.24211
G1 X97.874 Y76.977 E132.25801
G1 X97.057 Y77.225 E132.3432
G1 X97.032 Y77.233 E132.34582
G1 X120.204 Y100.405 E135.61564
G1 X120.069 Y100.745 E135.65215
G1 X119.998 Y100.91 E135.67007
G1 X119.771 Y101.386 E135.72269
G1 X95.824 Y77.439 E139.10187
G1 X95.316 Y77.455 E139.15258
G1 X94.636 Y77.39 E139.22074
G1 X94.279 Y77.308 E139.25729
G1 X119.284 Y102.314 E142.78584
G1 X119.175 Y102.512 E142.80839
G1 X119.1 Y102.638 E142.82302
G1 X118.745 Y103.189 E142.88842
G1 X92.353 Y76.796 E146.61269
G1 X92.284 Y76.78 E146.61976
G1 X91.651 Y76.672 E146.68383
G1 X91.138 Y76.56 E146.73622
G1 X90.541 Y76.399 E146.79792
G1 X118.154 Y104.012 E150.69441
G1 X117.876 Y104.377 E150.74019
G1 X117.516 Y104.788 E150.79471
G1 X88.811 Y76.083 E154.8453
G1 X88.285 Y76.023 E154.89812
G1 X88.11 Y76.009 E154.91564
G1 X87.287 Y75.973 E154.99784
G1 X116.826 Y105.513 E159.16618
G1 X116.727 Y105.612 E159.18015
G1 X116.39 Y105.979 E159.22987
G1 X116.157 Y106.258 E159.26614
G1 X85.913 Y76.013 E163.53396
G1 X85.254 Y76.069 E163.59995
G1 X84.645 Y76.16 E163.66139
G1 X115.486 Y107 E168.01332
G1 X115.208 Y107.288 E168.05326
G1 X115.065 Y107.425 E168.07302
G1 X114.832 Y107.64 E168.10466
G1 X114.773 Y107.702 E168.1132
G1 X83.461 Y76.39 E172.53166
G1 X83.18 Y76.454 E172.56041
G1 X82.994 Y76.504 E172.57963
G1 X82.357 Y76.7 E172.64613
G1 X114.118 Y108.461 E177.12795
G1 X113.962 Y108.671 E177.15406
G1 X113.628 Y109.267 E177.22223
G1 X113.594 Y109.351 E177.23127
G1 X81.324 Y77.081 E181.78491
G1 X81.148 Y77.148 E181.80371
G1 X81.001 Y77.212 E181.8197
G1 X80.35 Y77.522 E181.89165
G1 X113.234 Y110.406 E186.53194
G1 X112.99 Y111.401 E186.63416
G1 X112.951 Y111.536 E186.64818
G1 X79.437 Y78.022 E191.37737
G1 X79.26 Y78.121 E191.3976
G1 X79.122 Y78.207 E191.41383
G1 X78.574 Y78.574 E191.47964
G1 X112.598 Y112.598 E196.28079
G1 X112.282 Y113.377 E196.36467
G1 X112.2 Y113.562 E196.38486
G1 X112.183 Y113.597 E196.38875
G1 X77.765 Y79.179 E201.2455
G1 X77.532 Y79.359 E201.27488
G1 X77.411 Y79.459 E201.29054
G1 X77.003 Y79.831 E201.34563
G1 X111.708 Y114.536 E206.24288
G1 X111.181 Y115.418 E206.3454
G1 X111.179 Y115.422 E206.34585
G1 X76.289 Y80.532 E211.2692
G1 X75.984 Y80.853 E211.31339
G1 X75.613 Y81.269 E211.369
G1 X110.597 Y116.254 E216.30569
G1 X110.176 Y116.898 E216.38247
G1 X110.053 Y117.124 E216.40814
G1 X74.968 Y82.039 E221.35901
G1 X74.89 Y82.138 E221.37159
G1 X74.589 Y82.527 E221.42066
G1 X74.355 Y82.841 E221.45974
G1 X109.508 Y117.993 E226.42014
G1 X109.102 Y118.6 E226.493
G1 X108.926 Y118.826 E226.52158
G1 X73.768 Y83.668 E231.48276
G1 X73.693 Y83.776 E231.49588
G1 X73.3 Y84.374 E231.56728
G1 X73.208 Y84.522 E231.58467
G1 X108.296 Y119.61 E236.53596
G1 X107.815 Y120.144 E236.60767
G1 X107.681 Y120.28 E236.62672
G1 X107.615 Y120.343 E236.63583
G1 X72.679 Y85.407 E241.56568
G1 X72.535 Y85.659 E241.59464
G1 X72.179 Y86.321 E241.66964
G1 X106.887 Y121.029 E246.56731
G1 X106.244 Y121.563 E246.65071
G1 X106.111 Y121.667 E246.66756
G1 X71.71 Y87.266 E251.52191
G1 X71.507 Y87.696 E251.56935
G1 X71.318 Y88.131 E251.61668
G1 X71.272 Y88.242 E251.62867
G1 X105.283 Y122.253 E256.42799
G1 X105.237 Y122.284 E256.43352
G1 X104.443 Y122.766 E256.5262
G1 X104.403 Y122.788 E256.53076
G1 X70.87 Y89.255 E261.26263
G1 X70.826 Y89.371 E261.27501
G1 X70.584 Y90.052 E261.34712
G1 X70.501 Y90.3 E261.37321
G1 X103.469 Y123.268 E266.02535
G1 X103.353 Y123.322 E266.03812
G1 X102.52 Y123.674 E266.12836
G1 X102.477 Y123.69 E266.13293
G1 X70.183 Y91.396 E270.68997
G1 X69.991 Y92.254 E270.77769
G1 X69.964 Y92.402 E270.79271
G1 X69.939 Y92.567 E270.80936
G1 X101.42 Y124.047 E275.2516
